flaticon/file-type/photoshop.svg

<svg xmlns="http://www.w3.org/2000/svg" width="32" height="32" viewBox="0 0 24 24">
    <path d="M 18.589844 0 L 5.410156 0 C 2.425781 0 0 2.425781 0 5.410156 L 0 18.589844 C 0 21.574219 2.425781 24 5.410156 24 L 18.589844 24 C 21.574219 24 24 21.574219 24 18.589844 L 24 5.410156 C 24 2.425781 21.574219 0 18.589844 0 Z M 23.109375 18.589844 C 23.109375 21.082031 21.082031 23.109375 18.589844 23.109375 L 5.410156 23.109375 C 2.917969 23.109375 0.890625 21.082031 0.890625 18.589844 L 0.890625 5.410156 C 0.890625 2.917969 2.917969 0.890625 5.410156 0.890625 L 18.589844 0.890625 C 21.082031 0.890625 23.109375 2.917969 23.109375 5.410156 Z M 23.109375 18.589844"/>
    <path d="M8.851562 5.332031L4.570312 5.332031 4.570312 17.777344 5.847656 17.777344 5.847656 13.6875 8.976562 13.6875C9.582031 13.6875 10.105469 13.578125 10.542969 13.359375 10.980469 13.140625 11.308594 12.886719 11.519531 12.59375 11.734375 12.304688 11.902344 11.933594 12.027344 11.476562 12.152344 11.019531 12.226562 10.640625 12.25 10.335938 12.273438 10.035156 12.285156 9.675781 12.285156 9.261719 12.285156 8.089844 12.003906 7.140625 11.441406 6.417969 10.875 5.695312 10.015625 5.332031 8.851562 5.332031zM10.996094 10.042969C10.988281 10.222656 10.949219 10.488281 10.871094 10.84375 10.792969 11.199219 10.6875 11.472656 10.550781 11.664062 10.414062 11.851562 10.199219 12.03125 9.902344 12.195312 9.605469 12.363281 9.246094 12.445312 8.816406 12.445312L5.847656 12.445312 5.847656 6.578125 8.746094 6.578125C10.25 6.578125 11.003906 7.480469 11.003906 9.28125 11.003906 9.613281 11 9.867188 10.996094 10.042969zM18.320312 13.085938C17.851562 12.894531 17.378906 12.722656 16.90625 12.570312 16.433594 12.414062 16.003906 12.226562 15.625 12 15.246094 11.773438 15.058594 11.464844 15.058594 11.074219 15.058594 10.71875 15.207031 10.425781 15.511719 10.195312 15.8125 9.964844 16.273438 9.847656 16.890625 9.847656 17.503906 9.847656 18.003906 9.996094 18.382812 10.292969L18.792969 9.171875 18.578125 9.050781C18.4375 8.964844 18.199219 8.878906 17.867188 8.792969 17.535156 8.703125 17.179688 8.65625 16.800781 8.65625 15.722656 8.65625 14.941406 8.914062 14.460938 9.429688 13.980469 9.945312 13.742188 10.503906 13.742188 11.101562 13.742188 11.699219 13.960938 12.207031 14.398438 12.621094 14.753906 12.976562 15.167969 13.238281 15.636719 13.40625 16.105469 13.570312 16.570312 13.726562 17.03125 13.875 17.492188 14.023438 17.882812 14.226562 18.203125 14.480469 18.523438 14.734375 18.683594 15.078125 18.683594 15.511719 18.683594 15.945312 18.496094 16.277344 18.125 16.507812 17.75 16.738281 17.308594 16.851562 16.800781 16.851562 16.289062 16.851562 15.839844 16.730469 15.449219 16.488281 15.058594 16.246094 14.839844 15.90625 14.792969 15.464844L13.546875 15.519531C13.570312 16.230469 13.871094 16.828125 14.453125 17.316406 15.035156 17.800781 15.835938 18.042969 16.863281 18.042969 17.886719 18.042969 18.667969 17.796875 19.199219 17.308594 19.734375 16.816406 20 16.238281 20 15.574219 20 14.910156 19.835938 14.375 19.511719 13.972656 19.183594 13.570312 18.789062 13.273438 18.320312 13.085938zM18.320312 13.085938"/>
</svg>

<svg xmlns="http://www.w3.org/2000/svg" width="32" height="32" viewBox="0 0 24 24">
    <path d="M18.59 0H5.41A5.415 5.415 0 0 0 0 5.41v13.18A5.415 5.415 0 0 0 5.41 24h13.18A5.415 5.415 0 0 0 24 18.59V5.41A5.415 5.415 0 0 0 18.59 0zm4.52 18.59a4.525 4.525 0 0 1-4.52 4.52H5.41a4.525 4.525 0 0 1-4.52-4.52V5.41A4.525 4.525 0 0 1 5.41.89h13.18a4.525 4.525 0 0 1 4.52 4.52zm0 0"/>
    <path d="M8.852 5.332H4.57v12.445h1.278v-4.09h3.129c.605 0 1.128-.109 1.566-.328.437-.218.766-.472.977-.765.214-.29.382-.66.507-1.117.125-.457.2-.836.223-1.141.023-.3.035-.66.035-1.074 0-1.172-.281-2.121-.844-2.844-.566-.723-1.425-1.086-2.59-1.086zm2.144 4.711c-.008.18-.047.445-.125.8-.078.356-.184.63-.32.821-.137.188-.352.367-.649.531-.297.168-.656.25-1.086.25H5.848V6.578h2.898c1.504 0 2.258.902 2.258 2.703 0 .332-.004.586-.008.762zm0 0M18.32 13.086a19.86 19.86 0 0 0-1.414-.516 6.418 6.418 0 0 1-1.281-.57c-.379-.227-.566-.535-.566-.926 0-.355.148-.648.453-.879.3-.23.761-.347 1.379-.347.613 0 1.113.148 1.492.445l.41-1.121-.215-.121c-.14-.086-.379-.172-.71-.258a4.068 4.068 0 0 0-1.067-.137c-1.078 0-1.86.258-2.34.774-.48.515-.719 1.074-.719 1.672 0 .597.219 1.105.656 1.52.356.355.77.616 1.239.784.468.164.933.32 1.394.469.461.148.852.352 1.172.605.32.254.48.598.48 1.032 0 .433-.187.765-.558.996-.375.23-.816.344-1.324.344-.512 0-.961-.122-1.352-.364-.39-.242-.61-.582-.656-1.023l-1.246.055c.023.71.324 1.308.906 1.796.582.485 1.383.727 2.41.727 1.024 0 1.805-.246 2.336-.734.535-.493.801-1.07.801-1.735 0-.664-.164-1.199-.488-1.601a2.916 2.916 0 0 0-1.192-.887zm0 0"/>
</svg>
